contributed-vectors/crossy_road.svg

<svg xmlns="http://www.w3.org/2000/svg" id="svg2" width="192" height="192" version="1.1"><g id="layer1" transform="translate(0 -860.362)"><path id="rect985" d="M29.5 879.862h133c5.54 0 10 4.46 10 10v133c0 5.54-4.46 10-10 10h-133c-5.54 0-10-4.46-10-10v-133c0-5.54 4.46-10 10-10z" style="fill:#9abeff;fill-opacity:1;fill-rule:evenodd;stroke:none;stroke-opacity:1"/><path id="path828-5-0" d="m102 28-8 4-8 4-8 4-8 4-8 4-8 4-8 4v116.5h48V80l8-4 8-4 8-4 8-4 8-4 8-4 8-4-8-4-8-4-8-4-8-4-8-4-8-4z" style="opacity:1;fill:#fff" transform="translate(0 860.362)"/><path id="path828-9-15-9" d="M172.5 112.75 166 116v10l6.5-3.25v-10z" style="fill:#ececec" transform="translate(0 860.362)"/><path id="path939-7" d="m150 100-8 4 8 4-8 4-8 4-8 4 8 4 8 4 8 4 8-4 8-4 6.5-3.25v-1.5L166 116l6.5-3.25v-1.5L166 108l-8-4-8-4z" style="fill:#fff" transform="translate(0 860.362)"/><path id="path828-5" d="M150 52 94 80v92.5h56V158l8-4 8-4 6.5-3.25v-26L166 124l-8 4-8 4V52z" style="fill:#ececec" transform="translate(0 860.362)"/><path id="path828" d="M110 952.362v10l8-4v-10z" style="fill:#4a4a4a"/><path id="path828-9" d="m118 33-8 4-8 4-8 4-8 4v20l8-4 8-4 8-4 8-4V33z" style="fill:#dc505e" transform="translate(0 860.362)"/><path id="path828-3" d="M70 41v20l8 4 8 4V49l-8-4-8-4z" style="fill:#ff837d" transform="translate(0 860.362)"/><path id="path939" d="m102 25-8 4-8 4-8 4-8 4 8 4 8 4 8-4 8-4 8-4 8-4-8-4-8-4z" style="fill:#ffb0ac" transform="translate(0 860.362)"/><path id="path939-7-6" d="m158 138-8 4-8 4-8 4-8 4-8 4-8 4 8 4 8 4 8-4 8-4 8-4 8-4 8-4 6.5-3.25v-1.5L166 142l-8-4z" style="fill:#fff" transform="translate(0 860.362)"/><path id="path828-9-15-6" d="M172.5 146.75 166 150l-8 4-8 4-8 4-8 4-8 4v2.5h36.5c5.54 0 10-4.46 10-10v-15.75z" style="fill:#ececec" transform="translate(0 860.362)"/><path id="path828-3-54-6" d="M110 162v10.5h16V170l-8-4-8-4z" style="fill:#fff" transform="translate(0 860.362)"/><path id="path828-3-54-1-2" d="M46 972.362v20l8 4 8 4v-20l-8-4z" style="fill:#ff837d"/><path id="path828-3-54-1" d="M38 96v20l8 4 8 4v-20l-8-4-8-4z" style="fill:#f9de81" transform="translate(0 860.362)"/><path id="path828-9-15-3-9" d="m78 92-8 4-8 4-8 4v20l8-4 8-4 8-4V92z" style="fill:#f8c18c" transform="translate(0 860.362)"/><path id="path939-7-0" d="m62 84-8 4-8 4-8 4 8 4 8 4 8-4 8-4 8-4-8-4-8-4z" style="fill:#f9de81" transform="translate(0 860.362)"/><path id="path828-9-15-3-9-8" d="m78 112-8 4-8 4v20l8-4 8-4v-20z" style="fill:#dc505e" transform="translate(0 860.362)"/><path id="path828-3-54-1-6" d="M38 956.362v20l8 4 8 4v-20l-8-4z" style="fill:#fff;opacity:.25"/></g><style id="style853" type="text/css">.st0{fill:#898989}.st1{fill:#fff}</style></svg>

<?xml version="1.0" encoding="UTF-8" standalone="no"?>
<svg
   xmlns:dc="http://purl.org/dc/elements/1.1/"
   xmlns:cc="http://creativecommons.org/ns#"
   xmlns:rdf="http://www.w3.org/1999/02/22-rdf-syntax-ns#"
   xmlns:svg="http://www.w3.org/2000/svg"
   xmlns="http://www.w3.org/2000/svg"
   xmlns:sodipodi="http://sodipodi.sourceforge.net/DTD/sodipodi-0.dtd"
   xmlns:inkscape="http://www.inkscape.org/namespaces/inkscape"
   sodipodi:docname="crossy_road.svg"
   inkscape:version="0.92.5 (2060ec1f9f, 2020-04-08)"
   version="1.1"
   id="svg2"
   viewBox="0 0 192 192"
   height="192"
   width="192"
   inkscape:export-filename="/home/creepertron/Icon References/Delta/png/crossy_road.png"
   inkscape:export-xdpi="96"
   inkscape:export-ydpi="96">
  <sodipodi:namedview
     inkscape:document-rotation="0"
     inkscape:window-maximized="1"
     inkscape:window-y="-2"
     inkscape:window-x="-12"
     inkscape:window-height="745"
     inkscape:window-width="1280"
     units="px"
     showgrid="false"
     inkscape:current-layer="layer1"
     inkscape:document-units="px"
     inkscape:cy="101.24729"
     inkscape:cx="97.885019"
     inkscape:zoom="2.0000001"
     inkscape:pageshadow="2"
     inkscape:pageopacity="0.0"
     borderopacity="1.0"
     bordercolor="#666666"
     pagecolor="#ffffff"
     id="base"
     inkscape:snap-bbox="false"
     inkscape:object-paths="true"
     inkscape:snap-nodes="true"
     showguides="true"
     inkscape:guide-bbox="true"
     inkscape:snap-object-midpoints="true"
     inkscape:snap-center="true"
     inkscape:snap-global="true"
     inkscape:snap-intersection-paths="true"
     inkscape:snap-smooth-nodes="true"
     inkscape:snap-midpoints="true">
    <inkscape:grid
       type="xygrid"
       id="grid1015" />
  </sodipodi:namedview>
  <defs
     id="defs4" />
  <metadata
     id="metadata7">
    <rdf:RDF>
      <cc:Work
         rdf:about="">
        <dc:format>image/svg+xml</dc:format>
        <dc:type
           rdf:resource="http://purl.org/dc/dcmitype/StillImage" />
        <dc:title></dc:title>
      </cc:Work>
    </rdf:RDF>
  </metadata>
  <g
     transform="translate(0,-860.36216)"
     id="layer1"
     inkscape:groupmode="layer"
     inkscape:label="Calque 1">
    <path
       id="rect985"
       style="fill:#9ABEFF;fill-opacity:1;fill-rule:evenodd;stroke:none;stroke-opacity:1"
       d="m 29.5,879.86218 h 133 c 5.54,0 10,4.46 10,10 v 133.00002 c 0,5.54 -4.46,10 -10,10 h -133 c -5.54,0 -10,-4.46 -10,-10 V 889.86218 c 0,-5.54 4.46,-10 10,-10 z" />
    <path
       style="opacity:1;fill:#ffffff"
       d="M 102 28 L 94 32 L 86 36 L 78 40 L 70 44 L 62 48 L 54 52 L 46 56 L 46 172.5 L 94 172.5 L 94 80 L 102 76 L 110 72 L 118 68 L 126 64 L 134 60 L 142 56 L 150 52 L 142 48 L 134 44 L 126 40 L 118 36 L 110 32 L 102 28 z "
       transform="translate(0,860.36216)"
       id="path828-5-0" />
    <path
       style="fill:#ECECEC"
       d="M 172.5 112.75 L 166 116 L 166 126 L 172.5 122.75 L 172.5 112.75 z "
       transform="translate(0,860.36216)"
       id="path828-9-15-9" />
    <path
       style="fill:#ffffff"
       d="M 150 100 L 142 104 L 150 108 L 142 112 L 134 116 L 126 120 L 134 124 L 142 128 L 150 132 L 158 128 L 166 124 L 172.5 120.75 L 172.5 119.25 L 166 116 L 172.5 112.75 L 172.5 111.25 L 166 108 L 158 104 L 150 100 z "
       transform="translate(0,860.36216)"
       id="path939-7" />
    <path
       style="fill:#ECECEC"
       d="M 150 52 L 94 80 L 94 172.5 L 150 172.5 L 150 158 L 158 154 L 166 150 L 172.5 146.75 L 172.5 120.75 L 166 124 L 158 128 L 150 132 L 150 52 z "
       transform="translate(0,860.36216)"
       id="path828-5" />
    <path
       style="fill:#4A4A4A"
       d="m 110,952.36216 v 10 l 8,-4 v -10 z"
       id="path828"
       inkscape:connector-curvature="0"
       sodipodi:nodetypes="ccccc" />
    <path
       style="fill:#DC505E"
       d="M 118 33 L 110 37 L 102 41 L 94 45 L 86 49 L 86 59 L 86 69 L 94 65 L 102 61 L 110 57 L 118 53 L 118 43 L 118 33 z "
       transform="translate(0,860.36216)"
       id="path828-9" />
    <path
       style="fill:#FF837D"
       d="M 70 41 L 70 51 L 70 61 L 78 65 L 86 69 L 86 59 L 86 49 L 78 45 L 70 41 z "
       transform="translate(0,860.36216)"
       id="path828-3" />
    <path
       style="fill:#FFB0AC"
       d="M 102 25 L 94 29 L 86 33 L 78 37 L 70 41 L 78 45 L 86 49 L 94 45 L 102 41 L 110 37 L 118 33 L 110 29 L 102 25 z "
       transform="translate(0,860.36216)"
       id="path939" />
    <path
       style="fill:#ffffff"
       d="M 158 138 L 150 142 L 142 146 L 134 150 L 126 154 L 118 158 L 110 162 L 118 166 L 126 170 L 134 166 L 142 162 L 150 158 L 158 154 L 166 150 L 172.5 146.75 L 172.5 145.25 L 166 142 L 158 138 z "
       transform="translate(0,860.36216)"
       id="path939-7-6" />
    <path
       style="fill:#ECECEC"
       d="M 172.5 146.75 L 166 150 L 158 154 L 150 158 L 142 162 L 134 166 L 126 170 L 126 172.5 L 162.5 172.5 C 168.04 172.5 172.5 168.04 172.5 162.5 L 172.5 146.75 z "
       transform="translate(0,860.36216)"
       id="path828-9-15-6" />
    <path
       style="fill:#ffffff"
       d="M 110 162 L 110 172 L 110 172.5 L 126 172.5 L 126 170 L 118 166 L 110 162 z "
       transform="translate(0,860.36216)"
       id="path828-3-54-6" />
    <path
       inkscape:connector-curvature="0"
       style="fill:#FF837D"
       d="m 46,972.36216 v 10 10 l 8,4 8,4.00004 v -10.00004 -10 l -8,-4 z"
       id="path828-3-54-1-2" />
    <path
       style="fill:#F9DE81"
       d="M 38 96 L 38 106 L 38 116 L 46 120 L 54 124 L 54 114 L 54 104 L 46 100 L 38 96 z "
       transform="translate(0,860.36216)"
       id="path828-3-54-1" />
    <path
       style="fill:#F8C18C"
       d="M 78 92 L 70 96 L 62 100 L 54 104 L 54 114 L 54 124 L 62 120 L 70 116 L 78 112 L 78 102 L 78 92 z "
       transform="translate(0,860.36216)"
       id="path828-9-15-3-9" />
    <path
       style="fill:#F9DE81"
       d="M 62 84 L 54 88 L 46 92 L 38 96 L 46 100 L 54 104 L 62 100 L 70 96 L 78 92 L 70 88 L 62 84 z "
       transform="translate(0,860.36216)"
       id="path939-7-0" />
    <path
       style="fill:#DC505E"
       d="M 78 112 L 70 116 L 62 120 L 62 130 L 62 140 L 70 136 L 78 132 L 78 122 L 78 112 z "
       transform="translate(0,860.36216)"
       id="path828-9-15-3-9-8" />
    <path
       inkscape:connector-curvature="0"
       style="fill:#ffffff;opacity:0.25"
       d="m 38,956.36216 v 10 10 l 8,4 8,4 v -10 -10 l -8,-4 z"
       id="path828-3-54-1-6" />
  </g>
  <style
     type="text/css"
     id="style853">
	.st0{fill:#FFFFFF;}
</style>
  <style
     type="text/css"
     id="style907">
	.st0{fill:#898989;}
	.st1{fill:#FFFFFF;}
</style>
</svg>
